.gitbook/assets/mastodon-logo-purple.svg

<?xml version="1.0" encoding="UTF-8" standalone="no"?>
<svg
   width="30.030746"
   height="32"
   viewBox="0 0 75.076866 80"
   fill="none"
   version="1.1"
   id="svg13"
   sodipodi:docname="mastodon-logo-purple.svg"
   inkscape:version="1.2.2 (b0a8486541, 2022-12-01)"
   xmlns:inkscape="http://www.inkscape.org/namespaces/inkscape"
   xmlns:sodipodi="http://sodipodi.sourceforge.net/DTD/sodipodi-0.dtd"
   xmlns="http://www.w3.org/2000/svg"
   xmlns:svg="http://www.w3.org/2000/svg">
  <sodipodi:namedview
     id="namedview15"
     pagecolor="#ffffff"
     bordercolor="#000000"
     borderopacity="0.25"
     inkscape:showpageshadow="2"
     inkscape:pageopacity="0.0"
     inkscape:pagecheckerboard="0"
     inkscape:deskcolor="#d1d1d1"
     showgrid="false"
     inkscape:zoom="2.9873418"
     inkscape:cx="37.491525"
     inkscape:cy="39.5"
     inkscape:window-width="1920"
     inkscape:window-height="1131"
     inkscape:window-x="0"
     inkscape:window-y="32"
     inkscape:window-maximized="1"
     inkscape:current-layer="svg13" />
  <path
     d="M 73.8393,17.4898 C 72.6973,9.00165 65.2994,2.31235 56.5296,1.01614 55.05,0.797115 49.4441,0 36.4582,0 h -0.097 C 23.3717,0 20.585,0.797115 19.1054,1.01614 10.5798,2.27644 2.7939902,8.28712 0.90499722,16.8758 c -0.90858224,4.2298 -1.005546,8.9191 -0.8367576,13.2207 0.2406126,6.1686 0.2872986,12.3265 0.8475306,18.47 0.38729998,4.0809 1.06294998,8.1292 2.02185998,12.1147 1.79562,7.3608 9.0642698,13.4864 16.1856698,15.9854 7.6245,2.6062 15.8241,3.0389 23.6806,1.2496 0.8643,-0.2011 1.7178,-0.4345 2.5606,-0.7002 1.9105,-0.6068 4.1478,-1.2855 5.7926,-2.4775 0.0226,-0.0168 0.0411,-0.0384 0.0541,-0.0632 0.0131,-0.0249 0.0204,-0.0524 0.0213,-0.0805 v -5.9532 c -4e-4,-0.0262 -0.0066,-0.052 -0.0183,-0.0755 -0.0117,-0.0235 -0.0284,-0.0441 -0.0491,-0.0603 -0.0207,-0.0162 -0.0447,-0.0275 -0.0703,-0.0332 -0.0256,-0.0057 -0.0522,-0.0056 -0.0777,3e-4 -5.0336,1.2021 -10.1917,1.8048 -15.3669,1.7953 -8.9063,0 -11.3016,-4.2262 -11.9876,-5.9856 -0.5513,-1.5206 -0.9014,-3.1067 -1.0414,-4.718 -0.0015,-0.0271 0.0035,-0.0541 0.0145,-0.0789 0.0109,-0.0248 0.0276,-0.0466 0.0486,-0.0637 0.021,-0.0172 0.0457,-0.0291 0.0722,-0.0349 0.0265,-0.0058 0.0539,-0.0053 0.0802,0.0015 4.9497,1.194 10.0237,1.7967 15.1155,1.7953 1.2246,0 2.4456,0 3.6702,-0.0323 5.1211,-0.1436 10.5187,-0.4057 15.5572,-1.3895 0.1257,-0.0252 0.2514,-0.0467 0.3591,-0.079 7.9474,-1.5261 15.5106,-6.3159 16.2791,-18.445 0.0287,-0.4775 0.1006,-5.0017 0.1006,-5.4972 0.0035,-1.684 0.5422,-11.946 -0.0791,-18.2511 z"
     fill="url(#paint0_linear_549_34)"
     id="path2"
     style="fill:url(#paint0_linear_549_34)" />
  <path
     d="M 61.2484,27.0263 V 48.114 H 52.8916 V 27.6475 c 0,-4.3087 -1.7956,-6.5062 -5.4479,-6.5062 -4.015,0 -6.026,2.5996 -6.026,7.7342 V 40.0782 H 33.1111 V 28.8755 c 0,-5.1346 -2.0146,-7.7342 -6.0296,-7.7342 -3.6308,0 -5.4444,2.1975 -5.4444,6.5062 V 48.114 H 13.2839 V 27.0263 c 0,-4.3087 1.1001,-7.7317 3.3004,-10.2691 2.2696,-2.5314 5.2468,-3.8312 8.9421,-3.8312 4.2772,0 7.5093,1.6445 9.6641,4.9299 l 2.0793,3.4901 2.0829,-3.4901 c 2.1547,-3.2854 5.3868,-4.9299 9.6568,-4.9299 3.6918,0 6.6689,1.2998 8.9458,3.8312 2.1978,2.535 3.2955,5.958 3.2931,10.2691 z"
     fill="#ffffff"
     id="path4" />
  <defs
     id="defs11">
    <linearGradient
       id="paint0_linear_549_34"
       x1="37.069199"
       y1="0"
       x2="37.069199"
       y2="79"
       gradientUnits="userSpaceOnUse">
      <stop
         stop-color="#6364FF"
         id="stop6" />
      <stop
         offset="1"
         stop-color="#563ACC"
         id="stop8" />
    </linearGradient>
  </defs>
</svg>

<svg width="75" height="79" viewBox="0 0 75 79" fill="none" xmlns="http://www.w3.org/2000/svg">
<path d="M73.8393 17.4898C72.6973 9.00165 65.2994 2.31235 56.5296 1.01614C55.05 0.797115 49.4441 0 36.4582 0H36.3612C23.3717 0 20.585 0.797115 19.1054 1.01614C10.5798 2.27644 2.79399 8.28712 0.904997 16.8758C-0.00358524 21.1056 -0.100549 25.7949 0.0682394 30.0965C0.308852 36.2651 0.355538 42.423 0.91577 48.5665C1.30307 52.6474 1.97872 56.6957 2.93763 60.6812C4.73325 68.042 12.0019 74.1676 19.1233 76.6666C26.7478 79.2728 34.9474 79.7055 42.8039 77.9162C43.6682 77.7151 44.5217 77.4817 45.3645 77.216C47.275 76.6092 49.5123 75.9305 51.1571 74.7385C51.1797 74.7217 51.1982 74.7001 51.2112 74.6753C51.2243 74.6504 51.2316 74.6229 51.2325 74.5948V68.6416C51.2321 68.6154 51.2259 68.5896 51.2142 68.5661C51.2025 68.5426 51.1858 68.522 51.1651 68.5058C51.1444 68.4896 51.1204 68.4783 51.0948 68.4726C51.0692 68.4669 51.0426 68.467 51.0171 68.4729C45.9835 69.675 40.8254 70.2777 35.6502 70.2682C26.7439 70.2682 24.3486 66.042 23.6626 64.2826C23.1113 62.762 22.7612 61.1759 22.6212 59.5646C22.6197 59.5375 22.6247 59.5105 22.6357 59.4857C22.6466 59.4609 22.6633 59.4391 22.6843 59.422C22.7053 59.4048 22.73 59.3929 22.7565 59.3871C22.783 59.3813 22.8104 59.3818 22.8367 59.3886C27.7864 60.5826 32.8604 61.1853 37.9522 61.1839C39.1768 61.1839 40.3978 61.1839 41.6224 61.1516C46.7435 61.008 52.1411 60.7459 57.1796 59.7621C57.3053 59.7369 57.431 59.7154 57.5387 59.6831C65.4861 58.157 73.0493 53.3672 73.8178 41.2381C73.8465 40.7606 73.9184 36.2364 73.9184 35.7409C73.9219 34.0569 74.4606 23.7949 73.8393 17.4898Z" fill="url(#paint0_linear_549_34)"/>
<path d="M61.2484 27.0263V48.114H52.8916V27.6475C52.8916 23.3388 51.096 21.1413 47.4437 21.1413C43.4287 21.1413 41.4177 23.7409 41.4177 28.8755V40.0782H33.1111V28.8755C33.1111 23.7409 31.0965 21.1413 27.0815 21.1413C23.4507 21.1413 21.6371 23.3388 21.6371 27.6475V48.114H13.2839V27.0263C13.2839 22.7176 14.384 19.2946 16.5843 16.7572C18.8539 14.2258 21.8311 12.926 25.5264 12.926C29.8036 12.926 33.0357 14.5705 35.1905 17.8559L37.2698 21.346L39.3527 17.8559C41.5074 14.5705 44.7395 12.926 49.0095 12.926C52.7013 12.926 55.6784 14.2258 57.9553 16.7572C60.1531 19.2922 61.2508 22.7152 61.2484 27.0263Z" fill="white"/>
<defs>
<linearGradient id="paint0_linear_549_34" x1="37.0692" y1="0" x2="37.0692" y2="79" gradientUnits="userSpaceOnUse">
<stop stop-color="#6364FF"/>
<stop offset="1" stop-color="#563ACC"/>
</linearGradient>
</defs>
</svg>
